X: 551
T: Dere Dibi Saz Olur
C: (Anonim)
O: Turkey
F: http://compmusic.upf.edu/node/140
N: hicaz--ninni--yuruksofyan--dere_dibi--
N: makam= hicaz
N: form= ninni
N: usul= yuruksofyan = 2/4
M: 2/4
L: 1/16
K: C _7/8B ^f ^c 
Q: 1/4=60
%%MIDI tuningsystem comma53
G2A2 A2A2  | A2A2 A2G2  | c2d2 e2c2  | d4 z4  | \
w:  De re  di bi   |  saz_ o lur   |  nin  |  ni   | 
c2d2 c2_3/4B2  | A2G2 A2_3/4B2  | 
w:  Gül_ a çı lır   |  yaz_ o lur   | 
c6d2  | c2_3/4B2 B4  | c2d2 c2_3/4B2  | \
w:  nin  |  ni   |  Ben  yav ru ma   | 
A2G2 A2_3/4B2  | c6_3/4B2  | _3/4B4 z4  | \
w:  gül  de mem   |  nin  |  ni   | 
G2G2 A2A2  | 
w:  Gü lün_ öm rü   | 
_3/4B2A2 d4  | c2_3/4B2 B2A2  | A4 z4  | \
w:  az_ o lur   |  nin  |  ni   | 
_3/4B6A2  | _3/4B6A2  | e2d2 d2c2  | d2c2 _3/4B2A2  | 
w:  Hû  |  hû   |  hû  *  yav  |  rum  *  nin  | 
A8  | A4 z4  | G2A2 A2A2  | A2A2 A2G2  | c2d2 e2c2  | \
w:  ni   |   |  De re  di bi   |  saz_ o lur   |  nin  | 
d4 z4  | c2d2 c2_3/4B2  | 
w:  ni   |  Gül_ a çı lır   | 
A2G2 A2_3/4B2  | c6d2  | c2_3/4B2 B4  | \
w:  yaz_ o lur   |  nin  |  ni   | 
c2d2 c2_3/4B2  | A2G2 A2_3/4B2  | c6_3/4B2  | \
w:  Ben  yav ru ma   |  gül  de mem   |  nin  | 
_3/4B4 z4  | 
w:  ni   | 
G2G2 A2A2  | _3/4B2A2 d4  | c2_3/4B2 B2A2  | \
w:  Gü lün_ öm rü   |  az_ o lur   |  nin  | 
A4 z4  | _3/4B6A2  | _3/4B6A2  | e2d2 d2c2  | 
w:  ni   |  Hû  |  hû   |  hû  *  yav  | 
d2c2 _3/4B2A2  | A8  | A4 z4  | |


